X:521
T: Da zhi Shange guo heng pai
N: C0406
O: China,Jiangxi, Xingguo
S: IV, 228]
N: sehr typisch, auch alter Text.
N: Wenig Verzierungen, Glissandi. +++++ Im letzten Takt der
N: Phrase 5 ist in der Vorlage noch eine 0_ notiert; +1 nur 8tel?
R: Shange]
M: 2/4
L: 1/16
K: D
e2eBd4 | e8
dBB2dede | e2dBB2z2
ABdee2AA | deAABAAA | A8
f2e2dBde | e2ABd4
BdBdA2AB | ABd2d4
A2BdBdBA | FAA2B2AA | A8

